X: 2264
T: Babes In The Wood
R: polka
M: 2/4
K: Dmajor
|:A/B/A/G/ FA|de f2|ga/g/ fe|df A2|
A/B/A/G/ FA|de f2|gg/g/ fe|d4:|
|:cd ef|g4|fa fa|g4|
cd ef|g4|fa ge|d4:|

